icons/theatre-15.svg

<?xml version="1.0" encoding="UTF-8" standalone="no"?>
<!-- Generator: Adobe Illustrator 17.1.0, SVG Export Plug-In . SVG Version: 6.00 Build 0)  -->

<svg
   xmlns:dc="http://purl.org/dc/elements/1.1/"
   xmlns:cc="http://creativecommons.org/ns#"
   xmlns:rdf="http://www.w3.org/1999/02/22-rdf-syntax-ns#"
   xmlns:svg="http://www.w3.org/2000/svg"
   xmlns="http://www.w3.org/2000/svg"
   xmlns:sodipodi="http://sodipodi.sourceforge.net/DTD/sodipodi-0.dtd"
   xmlns:inkscape="http://www.inkscape.org/namespaces/inkscape"
   version="1.1"
   id="svg4619"
   x="0px"
   y="0px"
   height='15'
   width='15'
   viewBox="0 0 15 15"
   enable-background="new 0 0 15 15"
   xml:space="preserve"
   inkscape:version="0.91+devel+osxmenu r12911"
   sodipodi:docname="theatre-15.svg"><metadata
     id="metadata8"><rdf:RDF><cc:Work
         rdf:about=""><dc:format>image/svg+xml</dc:format><dc:type
           rdf:resource="http://purl.org/dc/dcmitype/StillImage" /><dc:title /></cc:Work></rdf:RDF></metadata><defs
     id="defs6" /><sodipodi:namedview
     pagecolor="#ffffff"
     bordercolor="#666666"
     borderopacity="1"
     objecttolerance="10"
     gridtolerance="10"
     guidetolerance="10"
     inkscape:pageopacity="0"
     inkscape:pageshadow="2"
     inkscape:window-width="909"
     inkscape:window-height="763"
     id="namedview4"
     showgrid="true"
     inkscape:snap-bbox="true"
     inkscape:bbox-paths="true"
     inkscape:bbox-nodes="true"
     inkscape:snap-bbox-edge-midpoints="true"
     inkscape:snap-bbox-midpoints="false"
     inkscape:snap-intersection-paths="true"
     inkscape:object-paths="true"
     inkscape:object-nodes="true"
     inkscape:snap-smooth-nodes="true"
     inkscape:snap-global="true"
     inkscape:snap-nodes="true"
     inkscape:snap-others="false"
     inkscape:zoom="45.254834"
     inkscape:cx="7.1479757"
     inkscape:cy="7.3202501"
     inkscape:window-x="16"
     inkscape:window-y="0"
     inkscape:window-maximized="0"
     inkscape:current-layer="svg4619"><inkscape:grid
       type="xygrid"
       id="grid3336"
       spacingx="0.5"
       spacingy="0.5"
       color="#ff0000"
       opacity="0.1254902"
       empspacing="2" /></sodipodi:namedview><path
     style="fill:#000000;fill-opacity:1"
     d="M 2 1 C 2 1 1 1 1 2 L 1 7.1582031 C 1 8.8884985 1.3540084 11 4.5 11 L 5 11 L 5 8 L 2.5 9 C 2.5 9 2.5 6.5 5 6.5 L 5 5 C 5 4.2921519 5.0867924 3.6791339 5.5 3.2246094 C 5.8815049 2.8049576 6.5046044 1.9674083 8.15625 2.7539062 L 9 3.3027344 L 9 2 C 9 2 9 1 8 1 C 7.2921519 1 6.0224473 2 5 2 C 3.9775528 2 2.786498 0.999998 2 1 z M 3 3 A 1.0000001 1.0000001 0 0 1 4 4 A 1.0000001 1.0000001 0 0 1 3 5 A 1.0000001 1.0000001 0 0 1 2 4 A 1.0000001 1.0000001 0 0 1 3 3 z M 7 4 C 7 4 6 4 6 5 L 6 10 C 6 12 7 14 10 14 C 13 14 14 12 14 10 L 14 5 C 14 4 13 4 13 4 C 12.292152 4 11.022447 5 10 5 C 8.9775527 5 7.7864979 4 7 4 z M 8 6 A 1.0000001 1.0000001 0 0 1 9 7 A 1.0000001 1.0000001 0 0 1 8 8 A 1.0000001 1.0000001 0 0 1 7 7 A 1.0000001 1.0000001 0 0 1 8 6 z M 12 6 A 1.0000001 1.0000001 0 0 1 13 7 A 1.0000001 1.0000001 0 0 1 12 8 A 1.0000001 1.0000001 0 0 1 11 7 A 1.0000001 1.0000001 0 0 1 12 6 z M 7.5 10 L 10 10 L 12.5 10 C 12.5 10 12.5 12.5 10 12.5 C 7.5 12.5 7.5 10 7.5 10 z "
     id="path6342-3" /></svg>

<?xml version="1.0" encoding="utf-8"?>
<!-- Generator: Adobe Illustrator 19.2.1, SVG Export Plug-In . SVG Version: 6.00 Build 0)  -->
<!DOCTYPE svg PUBLIC "-//W3C//DTD SVG 1.1//EN" "http://www.w3.org/Graphics/SVG/1.1/DTD/svg11.dtd">
<svg version="1.1"
	 id="svg4619" inkscape:version="0.91+devel+osxmenu r12911" sodipodi:docname="theatre-15.svg" xmlns:cc="http://creativecommons.org/ns#" xmlns:dc="http://purl.org/dc/elements/1.1/" xmlns:inkscape="http://www.inkscape.org/namespaces/inkscape" xmlns:rdf="http://www.w3.org/1999/02/22-rdf-syntax-ns#" xmlns:sodipodi="http://sodipodi.sourceforge.net/DTD/sodipodi-0.dtd" xmlns:svg="http://www.w3.org/2000/svg"
	 xmlns="http://www.w3.org/2000/svg" xmlns:xlink="http://www.w3.org/1999/xlink" x="0px" y="0px" width="15px" height="15px"
	 viewBox="0 0 15 15" style="enable-background:new 0 0 15 15;" xml:space="preserve">
<path id="path6342-3" d="M2,1c0,0-1,0-1,1v5.1582C1,8.8885,1.354,11,4.5,11H5V8L2.5,9c0,0,0-2.5,2.5-2.5V5
	c0-0.7078,0.0868-1.3209,0.5-1.7754C5.8815,2.805,6.5046,1.9674,8.1562,2.7539L9,3.3027V2c0,0,0-1-1-1C7.2922,1,6.0224,2,5,2
	S2.7865,1,2,1z M3,3c0.5523,0,1,0.4477,1,1S3.5523,5,3,5S2,4.5523,2,4S2.4477,3,3,3z M7,4c0,0-1,0-1,1v5c0,2,1,4,4,4s4-2,4-4V5
	c0-1-1-1-1-1c-0.7078,0-1.9776,1-3,1S7.7865,4,7,4z M8,6c0.5523,0,1,0.4477,1,1S8.5523,8,8,8S7,7.5523,7,7S7.4477,6,8,6z M12,6
	c0.5523,0,1,0.4477,1,1s-0.4477,1-1,1s-1-0.4477-1-1S11.4477,6,12,6z M7.5,10H10h2.5c0,0,0,2.5-2.5,2.5S7.5,10,7.5,10z"/>
</svg>
